X: 28
T:Paddy('s) Wedding. BF13.027
M:6/8
L:1/8
Q:120
C:In hand "B"
S:BF12,MS,c1850,Lakes,Browne Coll.
R:Jig
O:England
A:Lakes
N:No key signature is given.  It follows directly after Farewell to
N:Whisky, which is in A major, though it is in a different handwriting.
Z:vmp.Cherri Graebe.
K:DMajor
"NB"(Bc)|ddd AFA|GBA ABc|ddd efg|"NB"f2e e2f|!
g2ef2d|e2dc2A|Bcd AFA|B2A A:|!
|:fg|aba fdf|aba fdf|aba fdf|g2 e efg|!
a2fg2e|f2dc2A|Bcd AFA|B2A A:|]
W:Lead-in notes (A/B/C/) in ms..Bar 4 missing from ms.CGP||
